X: 29390
T: Niamh's Capers
R: reel
M: 4/4
K: Amajor
CE(3EEE DFAF|EFAc BAED|CE(3EEE DFAc|dDcD BDAD|
CE(3EEE DFAF|EAcA GABG|ABce fecf|1 ec=c^c BAED:|2 ec=c^c BcAc||
eA(3AAA fAaf|eAcA BcAc|eA(3AAA fecf|ecBA Bcd^d|
eA(3AAA fecf|ecBA BcAB|cA(3AAA GABc|1 ecAc BcAc:|2 ecAc BAED||

